X:1
T:Beautiful
T:Beautiful
T:Newton Washington Allphin
T:Eugenia F. Greer Floyd, 1906
T:Public Domain Courtesy of the Cyber Hymnal™
C:Newton Washington Allphin
Z:Public Domain
Z:Courtesy of the Cyber Hymnal™
%%score 1 2
L:1/8
Q:1/4=95
M:6/8
K:G
V:1 treble 
V:2 bass 
V:1
 B"^Duet" | d>cB (cd)e | d3 B2 z | cBA ABA | d3- d2 G | B>AG dBG | E3 c2 z | GFG B2 A | G3- G2 z || %9
w: 1.~O|beau- ti- ful sun- * shine|gleam- ing,|O- ver the plains and the|hills, * With|thoughts of the heav- en- ly|Ca- naan,|Earth- wear- y spir- its|fill. *|
w: 2.~O|beau- ti- ful rivu- * let|flow- ing,|Joy- ous- ly on to the|sea, * Sing|songs of the soul- cleans- ing|fount- ain,|O- pened on Cal- va-|ry. *|
w: 3.~O|beau- ti- ful twi- * light|sha- dows,|Wrapp- ing the de- w- y|lea, * Ye|tell us of rest that is|wait- ing,|O- ver the crys- tal|sea. *|
w: 4.~O|beau- ti- ful glor- * i-|ous sun-|set, Paint- ing on cloud and|sky, * Bright|scenes of the beau- ti- ful|Heav- en,|Home of the soul, on|high. *|
"^Refrain" [Gc]>"^Quartet"[Gc][Gc] [Ge][Ge][Ge] | [Gd]3{[DB]} [DB]2 z | %11
w: ||
w: ||
w: ||
w: ||
 [DA]>[DB][DA] [DA][DB][Dc] | [DB]3- [DB]2 z | [Gd]>[GB][DG] [DB][DA][DG] | [CE]3 [Ec]2 z | %15
w: ||||
w: ||||
w: ||||
w: ||||
 [DA][DG][DF] [DB]2 [DA] | [DG]3- [DG]2 |] %17
w: ||
w: ||
w: ||
w: ||
V:2
 G, | B,>A,G, (A,B,)C | B,3 G,2 z | A,G,F, F,G,C | B,3- B,2 B, | D>CB, B,DB, | C3 A,2 z | %7
w: ~|~ ~ ~ ~ * ~|~ ~|~ ~ ~ ~ ~ ~|~ * ~|~ ~ ~ ~ ~ ~|~ ~|
 B,A,B, D2 C | B,3- B,2 z || [C,E]>[C,E][C,E] [C,C][C,C][C,C] | [G,,B,]3{[G,,G,]} [G,,G,]2 z | %11
w: ~ ~ ~ ~ ~|~ *|Beau- ti- ful star of the|Or- ient,|
 [D,F,]>[D,G,][D,F,] [D,F,][D,G,][D,A,] | [G,,G,]3- [G,,G,]2 z | %13
w: Light- ing dark plac- es of|earth; *|
 [G,B,]>[G,D][G,B,] [G,,G,][A,,F,][B,,G,] | [C,G,]3 [C,G,]2 z | %15
w: Tell- ing the beau- ti- ful|sto- ry,|
 [C,F,][B,,G,][A,,A,] [D,G,]2 [D,C] | [G,,B,]3- [G,,B,]2 |] %17
w: Of the Re- deem- er’s|birth. *|

